X:1
T:3 Zweistimmige Lieder
T:Schön Blümelein
T:Robert Schumann
T:Robert Reinick
T:Schön Blümelein - Ich bin hinausgegangen
T:Op. 43, Nr. 3, bearbeitet für gemischten Chor (orig.: 2 st. Lied mit Klavierbegleitung)
T:CPDL - Creative Commons Attribution Non Commercial 3.0
T:CPDL - Creative Commons Attribution Non Commercial 3.0
C:Robert Schumann
Z:Robert Reinick
Z:CPDL - Creative Commons Attribution Non Commercial 3.0
%%score [ ( 1 2 3 4 ) ( 5 6 7 8 ) ]
L:1/8
Q:1/4=88
M:2/4
K:C
V:1 treble nm="Sopran\nAlt"
V:2 treble 
V:3 treble 
V:4 treble 
V:5 bass nm="Tenor\nBass"
V:6 bass 
V:7 bass 
V:8 bass 
V:1
"^Bewegt"!p! G | c>c cc | e2 c c/e/ | d>G GG | d3 G |!<(! c>c cc!<)! | e2 d>c | B>B!>(! A^F!>)! | %8
w: 1.~Ich|bin hin- aus- ge-|gan- gen des _|Mor- gens in der|Früh', die|Blüm- lein tä- ten|pran- gen, ich|sah so schön sie|
w: 2.~Die|Schmet- ter- ling und|Bie- nen, die _|Kä- fer hell und|blank, die|muss- ten all' ihm|die- nen bei|* chem Mor- gen-|
w: 3.~Und|wie sie so er-|zei- get ihr _|Spiel die Kreuz und|Quer, hat's|Blüm- lein sich ge-|nei- get mit|Freu- den hin und|
 G2 z G | G>G GG | d2 c/B/ A/G/ | c>c BB | A2 z A |!<(! A>A A!<)!A | %14
w: nie! Wagt'|eins da- von zu|pflü- cken, * weil *|mir's so wohl ge-|fiel, doch|als ich mich wollt'|
w: sang; und|scherz- ten viel und|küss- ten * das *|Blüm- lein auf den|Mund, *|trie- ben's nach Ge-|
w: her. Da|hab ich's nicht ge-|bro- chen, * es *|wär' ja mor- gen|tot, *|ha- be nur ge-|
[Q:1/4=88]"^rit."!>(! d2!>)! !fermata!G!p! E/G/ | c>e dG | c2 z ||!p! G | G>G Gc | A2 AF | D>D DG | %21
w: bü- cken, sah *|ich ein lieb- lich|Spiel.|4.~Und|Schmet- ter- ling und|Bie- nen, die|Kä- fer hell und|
w: lüs- ten wohl *|ei- ne hal- be|Stund'.|||||
w: spro- chen: A- *|de, du Blüm- lein|rot.|||||
 E2 z!p! G | EE/E/ Ec | A2 AF | D>D DG | E2!pp! G>G | E4- | E2[Q:1/4=120]"^smorz." E>E | %28
w: blank, die|san- gen mit fro- hen|Mie- nen mir|ei- nen schö- nen|Dank, schö- nen|Dank,|_ schö- nen|
w: |||||||
w: |||||||
 !fermata!E4 |] %29
w: Dank.|
w: |
w: |
V:2
 G | E>E EE | G2 E E/G/ | F>F FF | F3 F | E>E EE | G2 ^F>F | G>G E D/C/ | B,2 x =F | F>F FF | %10
w: ||||||||||
w: ||||||||||
w: ||||||||||
 F2 FF | E>G ^GG | A2 !>!G2 | F>F FF | F2 FE | E>G FF | E2 x || E | E>E EE | F2 FD | B,>B, B,B, | %21
w: ||* doch|||||||||
w: ||* und|||||||||
w: ||* und|||||||||
 C2 x E | CC/C/ CE | F2 FD | B,>B, B,B, | C2 E>E | C4- | C2 C>C | C4 |] %29
w: ||||||||
w: ||||||||
w: ||||||||
V:3
 x | x4 | x4 | x4 | x4 | x4 | x4 | BB/ x5/2 | x4 | x4 | x4 | x4 | x4 | x4 | x4 | x4 | x3 || x | %18
 x4 | x4 | x4 | x4 | x4 | x4 | x4 | x4 | x4 | x4 | x4 |] %29
V:4
 x | x4 | x4 | x4 | x4 | x4 | x4 | GG/ x5/2 | x4 | x4 | x4 | x4 | x4 | x4 | x4 | x4 | x3 || x | %18
w: ||||||||||||||||||
w: |||||||fröh- li\-|||||||||||
 x4 | x4 | x4 | x4 | x4 | x4 | x4 | x4 | x4 | x4 | x4 |] %29
w: |||||||||||
w: |||||||||||
V:5
!p! G, | G,>G, G,G, | C2 CC | B,>B, B,B, | B,3 B, |!<(! C>G, G,C!<)! | C2 A,>D | D>D!>(! CA,!>)! | %8
w: ||||||||
 G,2 z B, | B,>B, B,B, | B,2 DB, | C>E DD | C2 !>!^C2 |!<(! D>A, A,!<)!D | %14
w: ||||||
!>(! D2!>)! !fermata!B,!p!G, | G,>C B,B, | C2 z ||!p! G, | G,>G, G, G,/C/ | C2 CA, | G,>G, G,G, | %21
w: |||||||
 G,2 z G, | G,G,/G,/ G, G,/C/ | C2 CA, | G,>G, G,G, | G,4- | G,2!pp! G,>G, | G,2 G,>G, | %28
w: ||||Dank,|_ schö- nen|Dank, schö- nen|
 !fermata!G,4 |] %29
w: Dank,|
V:6
 G, | C,>C, C,C, | C,2 C,C, | G,>G, G,G, | G,3 G, | C,>C, C,C, | C,2 D,>D, | G,>G, C,D, | %8
 G,,2 x G, | G,>G, G,G, | G,,2 G,G, | C,>C, E,E, | F,2 E,2 | D,>D, D,C, | B,,D, G,C, | C,>C, G,G, | %16
 C,2 x || C, | C,>C, C,C, | F,2 F,F, | G,>G, G,,G,, | C,2 x C, | C,C,/C,/ C,C, | F,2 F,F, | %24
 G,>G, G,,G,, | C,4- | C,2 G,,>G,, | C,2 C,>C, | C,4 |] %29
V:7
 x | x4 | x4 | x4 | x4 | x4 | x4 | DD/ x5/2 | x4 | x4 | x4 | x4 | x4 | x4 | x4 | x4 | x3 || x | %18
 x4 | x4 | x4 | x4 | x4 | x4 | x4 | x4 | x4 | x4 | x4 |] %29
V:8
 x | x4 | x4 | x4 | x4 | x4 | x4 | G,G,/ x5/2 | x4 | x4 | x4 | x4 | x4 | x4 | x4 | x4 | x3 || x | %18
 x4 | x4 | x4 | x4 | x4 | x4 | x4 | x4 | x4 | x4 | x4 |] %29

